!!!!SEGMENT: pl-wnifc--6665-n_noskowski-zygmunt--lulajze-mi-op-74-no-3.krn
!!!cenid: 18xx:4013
!!!COM: Noskowski, Zygmunt
!!!COM-rismID: pe106604
!!!CDT: 1846/05/02-1909/07/23
!!!CNT: Polish
!!!OTL: Lulajże mi op. 74 No. 3
!!!PDT: 1903
!!!AGN:
!!!SMS-siglum: PL-Wnifc
!!!SMS-shelfmark: 6665/n
!!!SMS-shelfwork: W
!!!SMS-variant:
!!!SMS-altvar:
!!!NIFC-rismSourceID: 1001152872
!!!NIFC-rismChildID: 1001152872
!!!NIFC-islandoraID: nifc:213157
!!!URL-pdf-islandora: https://repozytorium.nifc.pl/islandora/object/nifc%3A213157/datastream/PDF/view
!!!URL-scan: https://polish.musicsources.pl/pl/lokalizacje/galeria/druki-muzyczne/16893 @EN{Scan on Polish Music Sources Website} @PL{Skany w portalu Dziedzictwo Muzyki Polskiej w otwartym dostępie}
!!!ONB-nifc:
!!!AIN: 2 piano 1 vox
!!!key: f
**kern	**kern	**dynam	**kern	**text	**text	**dynam
*part3	*part2	*part2	*part1	*part1	*part1	*part1
*staff3	*staff2	*	*staff1	*staff1	*staff1	*
*I"Pianoforte	*I"Fortepian.	*	*I"Śpiew.	*	*	*
*	*I'pf	*	*I'voce umana	*	*	*
*Ipiano	*Ipiano	*	*Ivox	*	*	*
*ICklav	*ICklav	*	*ICvox	*	*	*
*clefF4	*clefG2	*	*clefG2	*	*	*
*k[b-e-a-d-]	*k[b-e-a-d-]	*	*k[b-e-a-d-]	*	*	*
*f:	*f:	*	*f:	*	*	*
*M3/4	*M3/4	*	*M3/4	*	*	*
=1	=1	=1	=1	=1	=1	=1
*^	*^	*	*	*	*	*
!	!	!	!	!	!LO:TX:a:B:t=Moderato	!	!	!
!	!	!LO:TX:a:i:t=espressivo	!	!	!LO:TX:a:B:t=Moderato con moto.	!	!	!
(8FF/L	2.FF\	4r	4ryy	mf	2.r	.	.	.
8D-/J	.	.	.	.	.	.	.	.
2C/)	.	(4f:/	2A-:\	.	.	.	.	.
.	.	8e-/L	.	.	.	.	.	.
.	.	8d-/J	.	.	.	.	.	.
*	*	*v	*v	*	*	*	*	*
=2	=2	=2	=2	=2	=2	=2	=2
(8FF/L	2.FF\	8e-/L	.	2.r	.	.	.
8D-/J	.	8f/J	.	.	.	.	.
2C/)	.	2B-/) 2e- 2g	.	.	.	.	.
=3!|:	=3!|:	=3!|:	=3!|:	=3!|:	=3!|:	=3!|:	=3!|:
*	*	*^	*	*	*	*	*
(8FF/L	2.FF\	4r	4ryy	.	2.r	.	.	.
8D-/J	.	.	.	.	.	.	.	.
2C/)	.	(4a-:/	2A-:\ 2c:	.	.	.	.	.
.	.	8g/L	.	.	.	.	.	.
.	.	8f/J	.	.	.	.	.	.
*	*	*v	*v	*	*	*	*	*
=4	=4	=4	=4	=4	=4	=4	=4
(8FF/L	2.FF\	8g/L	.	2.r	.	.	.
8D-/J	.	8a-/J	.	.	.	.	.
2C/)	.	2B-/) 2e- 2g	.	.	.	.	.
=5	=5	=5	=5	=5	=5	=5	=5
*	*	*^	*	*	*	*	*
(8FF/L	2.FF\	4r	4ryy	.	2.r	.	.	.
8D-/J	.	.	.	.	.	.	.	.
2D-/)	.	(4b-:/	2B-:\ 2d-:	<	.	.	.	.
.	.	8a-/L	.	.	.	.	.	.
.	.	8g/J	.	.	.	.	.	.
!LO:LB:g=original	!LO:LB:g=original	!	!LO:LB:g=original	!	!	!	!	!
=6	=6	=6	=6	=6	=6	=6	=6	=6
(8FF/L	2.FF\	8b-/L	4r	[	2.r	.	.	.
8D-/J	.	8cc/J	.	.	.	.	.	.
2D-/)	.	4.b-/	2d-\ 2f	.	.	.	.	.
.	.	8cc/)	.	.	.	.	.	.
*	*	*v	*v	*	*	*	*	*
=7	=7	=7	=7	=7	=7	=7	=7
(8FF/L	2.FF\	(8dd-/L	.	2.r	.	.	.
8D-/J	.	8cc/)	.	.	.	.	.
2D-/)	.	(8B-:/ 8f: 8b-:	.	.	.	.	.
.	.	8f/	.	.	.	.	.
.	.	8g/	.	.	.	.	.
.	.	8a-/J)	.	.	.	.	.
*v	*v	*	*	*	*	*	*
=8	=8	=8	=8	=8	=8	=8
(8CC/L	2G/ 2en 2g	>	2.r	.	.	.
8D-/J	.	.	.	.	.	.
2C/)	.	.	.	.	.	.
.	4cc\	]]	.	.	.	.
=9	=9	=9	=9	=9	=9	=9
*^	*	*	*	*	*	*
(8FF/L	2.FF\	4r	p	2cc\	Oj!	Kiej	.
8D-/J	.	.	.	.	.	.	.
2C/)	.	2A-/ 2f	.	.	.	.	.
.	.	.	.	8b-\	za-	czar-	.
.	.	.	.	8a-/	-mruż	-na	.
=10	=10	=10	=10	=10	=10	=10	=10
(8FF/L	2.FF\	4r	.	8g/	si-	wi-	.
8D-/J	.	.	.	8f/	-we	-si	.
2D-/)	.	(2B-/ 2f 2g	.	(4b-\	o-	chmu-	.
.	.	.	.	8cc\L	.	.	.
.	.	.	.	8dd-\J)	.	.	.
!LO:LB:g=original	!LO:LB:g=original	!	!LO:LB:g=original	!	!	!	!
=11	=11	=11	=11	=11	=11	=11	=11
*	*	*^	*	*	*	*	*
(8FF/L	2.FF\	8c/) 8f 8a-	4ryy	.	[2.cc\	-czy	-ra	.
8D-/J	.	8r	.	.	.	.	.	.
2C/)	.	(4f:/	2A-:\	.	.	.	.	.
.	.	8e-/L	.	.	.	.	.	.
.	.	8d-/J	.	.	.	.	.	.
*	*	*v	*v	*	*	*	*	*
=12	=12	=12	=12	=12	=12	=12	=12
(8FF/L	2.FF\	8e-/L	.	4cc\]	.	.	.
8D-/J	.	8f/J	.	.	.	.	.
2C/)	.	2B-/) 2e- 2g	.	4r	.	.	.
.	.	.	.	4cc\	I	Nad	.
=13	=13	=13	=13	=13	=13	=13	=13
(8FF/L	2.FF\	4r	.	2cc\	za-	mat-	.
8D-/J	.	.	.	.	.	.	.
2C/)	.	2A-/ 2f	.	.	.	.	.
.	.	.	.	(8b-/L	-śnij	-ką	.
.	.	.	.	8a-/J)	.	.	.
=14	=14	=14	=14	=14	=14	=14	=14
(8FF/L	2.FF\	4r	.	8g/	że	i	.
8D-/J	.	.	.	8f/	mi	nad	.
2C/)	.	2B-/ 2en	.	(4g/	dzie-	to-	.
.	.	.	.	8a-/L	.	.	.
.	.	.	.	8b-/J)	.	.	.
=15	=15	=15	=15	=15	=15	=15	=15
*	*	*^	*	*	*	*	*
(8FF/L	2.FF\	4r	4ryy	.	[2.a-/	-cię,	-bą,	.
8D-/J	.	.	.	.	.	.	.	.
2C/)	.	(4a-:/	2A-:\	.	.	.	.	.
.	.	8g/L	.	.	.	.	.	.
.	.	8f/J	.	.	.	.	.	.
!LO:LB:g=original	!LO:LB:g=original	!	!LO:LB:g=original	!	!	!	!	!
=16	=16	=16	=16	=16	=16	=16	=16	=16
(8FF/L	2.FF\	8en/L	4ryy	.	2a-/]	.	.	.
8D-/J	.	8f/J)	.	.	.	.	.	.
2C/)	.	(4a-:/	2A-:\	.	.	.	.	.
.	.	4g/)	.	.	4r	.	.	.
!LO:LB:g=original	!LO:LB:g=original	!	!LO:LB:g=original	!	!	!	!	!
*v	*v	*	*	*	*	*	*	*
*	*v	*v	*	*	*	*	*
=17	=17	=17	=17	=17	=17	=17
(8CC/L	4r	<	8r	.	.	.
8GG/J	.	.	8g/	Bo	Kiej	.
2C	2G/ 2c 2e--	.	8f/	do-	.	.
.	.	.	8e-/	raz	la	.
.	.	.	8g/	pew	tak	.
.	.	.	8a-/	nie	po-	.
.	.	[	.	.	.	.
=18	=18	=18	=18	=18	=18	=18
*^	*	*	*	*	*	*
(8GG/L	2.GG\	4r	>	(8b-\L	wży-	nu-	.
8E-/J	.	.	.	8cc\J)	.	.	.
2Dn/)	.	(4G/ 4B- 4dn	]	2b-	ciu	ra	.
.	.	4B-/) 4d 4g	.	.	.	.	.
*v	*v	*	*	*	*	*	*
=19	=19	=19	=19	=19	=19	=19
(8CC/L	4r	<	8r	.	.	.
8GG/J	.	.	8g	Na-	I	.
2C/)	2G/ 2c 2e-	[	8f	pła-	piosn-	.
.	.	.	8e-	czesz	ka	.
.	.	.	8b-	się	brzmi	.
.	.	.	8cc	ty	ża-	.
=20	=20	=20	=20	=20	=20	=20
*^	*	*	*	*	*	*
(8GG/L	2.GG\	4r	.	(8dd-\L	prze-	lo-	.
8F/J	.	.	.	8cc\J)	.	.	.
2E-/)	.	(4B-/ 4d-X 4e-	.	4b-	cię	bą	.
.	.	4d-/) 4e- 4b-	.	8r	.	.	.
.	.	.	.	8ee-	Za-	Oj!	.
=21	=21	=21	=21	=21	=21	=21	=21
(8AA-/L	2.AA-\	4r	.	2ee-	pła-	jed-	.
8F/J	.	.	.	.	.	.	.
2E-/)	.	2c/ 2e- 2a-	<[	.	.	.	.
.	.	.	.	(8dd-\L	czesz	na	.
.	.	.	.	8cc\J)	.	.	.
!LO:LB:g=original	!LO:LB:g=original	!	!LO:LB:g=original	!	!	!	!
=22	=22	=22	=22	=22	=22	=22	=22
(8AA-/L	2.AA-\	4r	.	8b-\	so-	tyl-	.
8G/J	.	.	.	8a-/	-bie	-ko	.
2F/)	.	2A-/ 2d- 2f	.	(4dd-\	nie	jed-	.
.	.	.	.	8ee-\L	.	.	.
.	.	.	.	8ff\J)	.	.	.
=23	=23	=23	=23	=23	=23	=23	=23
*	*	*^	*	*	*	*	*
(8AA-/L	2.AA-\	4r	4ryy	mf	[2.ee-\	raz	-nak	.
8F/J	.	.	.	.	.	.	.	.
2E-/)	.	(4cc:/	2c:\	.	.	.	.	.
.	.	8b-/L	.	.	.	.	.	.
.	.	8a-/J	.	.	.	.	.	.
=24	=24	=24	=24	=24	=24	=24	=24	=24
(8AA-/L	2.AA-\	8b-/L	4r	.	2ee-\]	.	.	.
8F/J	.	8cc/J)	.	.	.	.	.	.
2E-/)	.	(4dd-:/	2d-:\ 2b-:	.	.	.	.	.
.	.	4bn/)	.	.	8r	.	.	.
.	.	.	.	.	8ee-\	Oj!	u-	.
*	*	*v	*v	*	*	*	*	*
=25	=25	=25	=25	=25	=25	=25	=25
(8AA-/L	2.AA-\	4c/ 4a- 4cc	.	2ee-\	i	-ża-	.
8F/J	.	.	.	.	.	.	.
2E-/)	.	2c/ 2cc	.	.	.	.	.
.	.	.	.	(8dd-\L	rzew-	-li	.
.	.	.	.	8cc\J)	.	.	.
=26	=26	=26	=26	=26	=26	=26	=26
(8AA-/L	2.AA-\	4r	.	8b-\	-ne-	się	.
8F/J	.	.	.	8a-/	-mi	ma-	.
2E-/)	.	2B-/ 2d- 2b-	.	(4b-\	łza-	-tu-	.
.	.	.	.	8cc\L	.	.	.
.	.	.	.	8dd-\J)	.	.	.
=27	=27	=27	=27	=27	=27	=27	=27
*	*	*^	*	*	*	*	*
(8AA-/L	2.AA-\	4r	4ryy	.	[2.cc\	-mi	-la,	.
8F/J	.	.	.	.	.	.	.	.
2E-/)	.	(4cc:/	2c:\	.	.	.	.	.
.	.	8b-/L	.	.	.	.	.	.
.	.	8a-/J	.	.	.	.	.	.
!LO:LB:g=original	!LO:LB:g=original	!	!LO:LB:g=original	!	!	!	!	!
=28	=28	=28	=28	=28	=28	=28	=28	=28
(8AA-/L	2.AA-\	8ee-/L	4r	.	2cc\]	.	.	.
8F/J	.	8dd-/J)	.	.	.	.	.	.
2E-/)	.	(8cc:/L	2c:\	.	.	.	.	.
.	.	8b-/	.	>	.	.	.	.
.	.	8cc/	.	.	4r	.	.	.
.	.	8a-/J)	.	.	.	.	.	.
*v	*v	*	*	*	*	*	*	*
=29	=29	=29	=29	=29	=29	=29	=29
(8CC/L	8g/L	(2en\	] p	8r	.	.	.
8D-/J	8b-/	.	.	8g/	Więc	Chóc	.
2C/)	8a-/	.	.	8a-/	śpij-	sa-	.
.	8g/	.	.	8b-\	-że	-ma	.
.	8a-/	4B-\)	.	8cc\	kiej	ta-	.
.	8e/J	.	.	8g/	cię	-ka	.
=30	=30	=30	=30	=30	=30	=30	=30
*^	*	*	*	*	*	*	*
(8FF/L	2.FF\	(2f/	2.A-\	.	(8a-/L	te-	bied-	.
8D-/J	.	.	.	.	8b-/	.	.	.
2C/)	.	.	.	.	8a-/	.	.	.
.	.	.	.	.	8g/J)	.	.	.
.	.	4c/)	.	.	4f/	-zaz	-na	.
*v	*v	*	*	*	*	*	*	*
*	*v	*v	*	*	*	*	*
=31	=31	=31	=31	=31	=31	=31
(8BBB-/L	4r	.	8r	.	.	.
8FF/J	.	.	8d-/	O-	Do	.
4BB-/	2B-/ 2d-	.	8e-/	-tu-	pier-	.
.	.	.	8f/	-lam	-si	.
4GG/)	.	.	8g/	ra-	cię	.
.	.	.	8d-/	mio-	przy-	.
!LO:LB:g=original	!LO:LB:g=original	!	!LO:LB:g=original	!	!	!
=32	=32	=32	=32	=32	=32	=32
*	*^	*	*	*	*	*
(8CC/L	8a-/L	4B-\ 4d-	.	(8a-/L	-na-	-tu-	.
8GG/J	8g/J	.	.	8g/J)	.	.	.
4D-/	2en/	2B-/	.	2en/	-mi	-la	.
4C/)	.	.	.	.	.	.	.
*	*v	*v	*	*	*	*	*
=33	=33	=33	=33	=33	=33	=33
*^	*	*	*	*	*	*
!	!	!	!	!	!	!	!LO:DY:a
(8FF/L	2.FF\	4r	mf	4f/	Oj!	.	f
8D-/J	.	.	.	.	.	.	.
2C/)	.	2A-/ 2f	.	4ff\	lu-	.	.
.	.	.	.	8ee-X\	-laj-	.	.
.	.	.	.	8dd-\	że	.	.
=34	=34	=34	=34	=34	=34	=34	=34
(8FF/L	2.FF\	4r	.	(8cc\L	mi	.	.
8E-/J	.	.	.	8b-\J)	.	.	.
2D-/)	.	2A-/ 2f	.	2ff\	lu-	.	.
=35	=35	=35	=35	=35	=35	=35	=35
*	*	*^	*	*	*	*	*
(8FF/L	[2.FF\	4r	4ryy	.	[2.een\	-laj!	.	.
8D-/J	.	.	.	.	.	.	.	.
[2C/)	.	(4g/	[2B-\ [2en	.	.	.	.	.
.	.	8a-/L	.	.	.	.	.	.
.	.	8g/J	.	.	.	.	.	.
*v	*v	*	*	*	*	*	*	*
=36	=36	=36	=36	=36	=36	=36	=36
2FF/] 2C]	8b-/L	2.B-\] 2.e]	.	2ee\]	.	.	.
.	8a-/J	.	.	.	.	.	.
.	4g/	.	>	.	.	.	.
4r	4cc/)	.	.	4r	.	.	.
*	*v	*v	*	*	*	*	*
=37	=37	=37	=37	=37	=37	=37
!	!	!	!	!	!	!LO:DY:a
(8FF/L	4r	] p	4cc\	Oj!	.	p
8G-X/J	.	.	.	.	.	.
2F/)	2An/ 2e-X 2f	.	4ee-X\	lu-	.	.
.	.	.	8dd-\	-laj-	.	.
.	.	.	8cc\	-że	.	.
!LO:LB:g=original	!LO:LB:g=original	!	!LO:LB:g=original	!	!	!
=38	=38	=38	=38	=38	=38	=38
*	*^	*	*	*	*	*
4BB-/ 4F	4d-/	4B-/	.	(8b-/L	mi	.	.
.	.	.	.	8a-/J)	.	.	.
2AA-/ 2A-	(4f/	2c\	.	[2cc\	lu-	.	.
.	8g/L	.	.	.	.	.	.
.	8f/J)	.	.	.	.	.	.
*	*v	*v	*	*	*	*	*
=39	=39	=39	=39	=39	=39	=39
4CC/ 4C	4B-/ 4en	.	2cc\]	.	.	.
4r	4r	.	.	.	.	.
4r	4r	.	4cc\	-laj,	.	.
=40	=40	=40	=40	=40	=40	=40
*^	*^	*	*	*	*	*
(8FF/L	[2.FF\	4r	4ryy	.	(8cc/L	lu-	.	.
8D-/J	.	.	.	.	8f/J)	.	.	.
[2C/)	.	(4f/	[2A-\	.	[2f/	-laj!	.	.
.	.	8e-/L	.	.	.	.	.	.
.	.	8d-/J	.	.	.	.	.	.
*v	*v	*	*	*	*	*	*	*
=41	=41	=41	=41	=41	=41	=41	=41
2.FF/] 2.C]	8c/L	2.A-\]	.	2f/]	.	.	.
.	8d-/J	.	.	.	.	.	.
.	2c/)	.	.	.	.	.	.
.	.	.	.	4r	.	.	.
=42:|!	=42:|!	=42:|!	=42:|!	=42:|!	=42:|!	=42:|!	=42:|!
*^	*	*	*	*	*	*	*
!	!	!	!	!	!	!	!	!LO:DY:a
(8FF/L	[2.FF\	4r	4ryy	pp	(8cc\L	lu-	.	pp
8D-/J	.	.	.	.	8ff\J)	.	.	.
[2C/)	.	(4f/	[2A-\	.	[2ff\	-laj!	.	.
.	.	8e-/L	.	.	.	.	.	.
.	.	8d-/J	.	.	.	.	.	.
*v	*v	*	*	*	*	*	*	*
=43	=43	=43	=43	=43	=43	=43	=43
2FF/] 2C]	8c/L	2.A-\]	.	2.ff\_	.	.	.
.	8d-/J	.	>	.	.	.	.
.	4c/)	.	.	.	.	.	.
4FF/ 4C	4A-/ 4c	.	.	.	.	.	.
*	*v	*v	*	*	*	*	*
=44	=44	=44	=44	=44	=44	=44
2.FF;/ 2.C	2.A-;/ 2.f	]	2.ff;\]	.	.	.
==	==	==	==	==	==	==
*-	*-	*-	*-	*-	*-	*-
!!!system-decoration: s1[(s2,s3)]
!!!ENC: Filip Voros
!!!END: 2022-08-06
!!!ENC: Julita Ruszuk
!!!END: 2022-09-02
!!!YEC: Copyright 2022 Narodowy Instytut Fryderyka Chopina (https://polishscores.org)
!!!YEM: License CC-BY-4.0 (https://creativecommons.org/licenses/by/4.0)
